!!!OTL: ES FUHR EIN ARMER BINDER
!!!ARE: Europa, Mitteleuropa, Deutschland
!!!SCT: E0130
!!!YEM: Copyright 1995, estate of Helmut Schaffrath.
**kern
*ICvox
*Ivox
*M4/4
*k[f#]
*G:
{8b
8cc
=1
4dd
4dd
4ee
4ee
=2
4.dd
8cc
4b}
{4dd
=3
4cc
4b
4a
4a
=4
2g
4r}
{4g
=5
4a
4a
4b
4b
=6
2cc
4a}
{4dd
=7
4g
4g
4f#
4g
=8
2a}
{2b
=9
4cc
4dd
4b
4a
=10
2.g}
==
!!!AGN: erzaehlendes Volks - Lied, Schalk -, Schelmen - Lied, Liebe; Handwerk, Ballade ?
!!!ONB: ESAC (Essen Associative Code) Database: ERK1
!!!AMT: simple quadruple
!!!AIN: vox
!!!EED: Helmut Schaffrath
!!!EEV: 1.0
*-
